X:88
T:Bristol Cross
C:Wright, c. 1742
S:Colin Hume's website,  colinhume.com  - chords can also be printed below the stave.
Q:1/2=112
M:2/2
L:1/8
K:Dm
P:A
|: FE | "Dm"D2d2 "A7"^c2A2 | "Dm"defg "A7"e2A2 | "Dm"F2d2 "A"E2^c2 | "Dm"d2D2- D2ab |
"C"c'2g2 e2c2 | "Dm"a2f2 "Bb"d2B2 | "F/C"A2f2 "C7"G2e2 | "F"f2F2- F2 :|
P:B
|: cB | "F"A2F2 ABcA | "Gm"B2G2- "A7"G2^c2 | "Dm"d2ef "Gm"gfed | "A"^c2A2- A2ag |
"Dm"f2d2 "Gm"B2G2 | "C"gfed "A7"cBAG | "Dm"F2D2 "A"A,2^c2 | "Dm"d2D2- D2 :|

